src/icons/ios-people.svg

<?xml version="1.0" encoding="UTF-8"?>
<svg width="512px" height="512px" viewBox="0 0 512 512" version="1.1" xmlns="http://www.w3.org/2000/svg" xmlns:xlink="http://www.w3.org/1999/xlink">
    <!-- Generator: Sketch 62 (91390) - https://sketch.com -->
    <title>ios-people</title>
    <desc>Created with Sketch.</desc>
    <g id="ios-people" stroke="none" stroke-width="1" fill="none" fill-rule="evenodd">
        <path d="" id="Path" fill="#000000" fill-rule="nonzero"></path>
        <path d="M330.9,331.767144 C316.9,326.867144 301.6,326.467144 287.5,321.667144 C283.3,320.167144 274.8,318.467144 273,313.367144 C271.4,308.567144 271.4,303.067144 270.9,297.867144 C270.8,293.967144 270.6,289.967144 270.6,286.067144 C270.6,283.467144 277.4,277.867144 278.9,275.667144 C284.5,266.267144 285.1,253.667144 286,243.167144 C295.1,245.567144 296.2,228.867144 297.8,223.767144 C298.9,220.167144 306,195.867144 295,199.267144 C297.6,194.667144 298.7,189.067144 299.4,183.867144 C301.5,170.567144 302.3,155.967144 298.3,142.767144 C289.8,115.667144 263.9,100.567144 236.6,99.567144 C208.7,98.767144 180.8,111.967144 170.5,139.067144 C165.6,152.167144 165.9,166.467144 167.6,180.267144 C168.4,186.567144 169.3,193.567144 172.5,199.067144 C162.4,195.967144 167.8,217.567144 169,221.267144 C170.6,226.567144 172.1,245.667144 181.6,243.067144 C182.4,251.467144 183.3,260.167144 185.6,268.267144 C187.2,273.767144 190.4,278.467144 194.2,282.767144 C196.1,284.867144 197,285.067144 197,287.667144 C196.9,295.967144 197.1,304.667144 194.9,312.467144 C192.8,320.367144 175.4,323.667144 168.5,325.167144 C149.7,328.967144 132.5,330.767144 116.8,342.467144 C98.6,355.867144 89,376.867144 89,399.467144 L378.8,399.467144 C378.6,369.067144 360.1,342.067144 330.9,331.767144 L330.9,331.767144 Z" id="Path" fill="#000000" fill-rule="nonzero"></path>
        <path d="M232.9,318.55 L234.5,317.75 L233.7,318.25 C233.5,318.05 233.1,318.15 232.9,318.55 L232.9,318.55 Z M116.2,318.55 L117,318.05 L117.8,317.55 C124.9,314.25 132.5,313.35 140.2,312.65 C143.1,312.35 144.4,310.35 142.3,307.45 C138.1,302.15 123.7,301.05 117.8,298.75 C114,297.25 113,295.95 112.6,291.75 C112.5,289.85 111.4,281.55 112.9,280.25 C113.8,279.35 120.5,279.55 122,279.45 C128,278.65 133.9,277.35 139.7,275.25 C142,274.45 144.4,273.15 146.5,271.75 C148.9,269.85 144.6,265.35 143.4,262.95 C139.9,255.05 138.2,246.65 137.8,238.05 C136.9,221.15 139.4,204.35 136.2,187.65 C131.5,162.05 111.8,149.25 86.7,149.25 C71.2,149.25 55.9,154.55 47.1,168.05 C37.5,182.95 38,201.55 38.5,218.55 C38.8,228.15 39.3,238.05 37.8,247.85 C37.1,252.05 36.2,256.15 34.7,260.15 C33.5,263.25 27.7,270.55 30,272.35 C38.6,278.55 53.3,280.65 63.7,279.85 C64,285.05 65,291.55 63,296.35 C60.1,303.85 38.2,305.85 31.8,308.05 C13.6,313.65 0,328.45 0,349.35 L82.9,349.35 C84.2,349.35 89.4,339.75 90.9,338.15 C98.2,330.15 106.7,323.35 116.2,318.55 L116.2,318.55 Z M435.2,307.45 C426.8,304.65 410.4,303.95 404.4,296.65 C401.3,292.95 403.1,283.65 403.5,279.35 C408.1,279.85 413.1,279.05 417.8,278.55 C422,277.85 426.2,277.05 430.4,275.65 C432.3,274.85 434.2,274.15 435.9,273.25 C439.9,270.95 438.2,270.45 436,266.85 C424.6,247.65 429.7,223.75 429.2,202.65 C428.7,185.35 424.3,166.15 408.3,156.45 C394,147.65 372.8,147.25 357.5,153.55 C313.2,171.25 339.4,229.85 324.2,263.45 C321.6,269.05 317.8,271.05 324.3,274.45 C328,276.35 331.9,277.55 335.8,278.45 C341.8,279.95 348.1,280.75 354.4,280.85 C355.3,280.85 354.7,293.95 354.4,295.35 C353.3,300.55 342.1,301.85 337.9,303.15 C333.7,304.35 326.5,304.65 324.5,309.15 C321.4,315.95 334.8,314.05 338.3,314.75 C349.1,316.85 358.6,322.65 367,329.45 C373.3,334.65 381.7,341.35 384,349.75 L467.6,349.75 C467.2,328.25 453.5,313.35 435.2,307.45 L435.2,307.45 Z" id="Shape" fill="#000000" fill-rule="nonzero"></path>
    </g>
</svg>

<svg xmlns="http://www.w3.org/2000/svg" width="512" height="512" viewBox="0 0 512 512">
    <path d="M330.9 331.767c-14-4.9-29.3-5.3-43.4-10.1-4.2-1.5-12.7-3.2-14.5-8.3-1.6-4.8-1.6-10.3-2.1-15.5-.1-3.9-.3-7.9-.3-11.8 0-2.6 6.8-8.2 8.3-10.4 5.6-9.4 6.2-22 7.1-32.5 9.1 2.4 10.2-14.3 11.8-19.4 1.1-3.6 8.2-27.9-2.8-24.5 2.6-4.6 3.7-10.2 4.4-15.4 2.1-13.3 2.9-27.9-1.1-41.1-8.5-27.1-34.4-42.2-61.7-43.2-27.9-.8-55.8 12.4-66.1 39.5-4.9 13.1-4.6 27.4-2.9 41.2.8 6.3 1.7 13.3 4.9 18.8-10.1-3.1-4.7 18.5-3.5 22.2 1.6 5.3 3.1 24.4 12.6 21.8.8 8.4 1.7 17.1 4 25.2 1.6 5.5 4.8 10.2 8.6 14.5 1.9 2.1 2.8 2.3 2.8 4.9-.1 8.3.1 17-2.1 24.8-2.1 7.9-19.5 11.2-26.4 12.7-18.8 3.8-36 5.6-51.7 17.3-18.2 13.4-27.8 34.4-27.8 57h289.8c-.2-30.4-18.7-57.4-47.9-67.7z"/>
    <path d="M232.9 318.55l1.6-.8-.8.5c-.2-.2-.6-.1-.8.3zm-116.7 0l.8-.5.8-.5c7.1-3.3 14.7-4.2 22.4-4.9 2.9-.3 4.2-2.3 2.1-5.2-4.2-5.3-18.6-6.4-24.5-8.7-3.8-1.5-4.8-2.8-5.2-7-.1-1.9-1.2-10.2.3-11.5.9-.9 7.6-.7 9.1-.8 6-.8 11.9-2.1 17.7-4.2 2.3-.8 4.7-2.1 6.8-3.5 2.4-1.9-1.9-6.4-3.1-8.8-3.5-7.9-5.2-16.3-5.6-24.9-.9-16.9 1.6-33.7-1.6-50.4-4.7-25.6-24.4-38.4-49.5-38.4-15.5 0-30.8 5.3-39.6 18.8-9.6 14.9-9.1 33.5-8.6 50.5.3 9.6.8 19.5-.7 29.3-.7 4.2-1.6 8.3-3.1 12.3-1.2 3.1-7 10.4-4.7 12.2 8.6 6.2 23.3 8.3 33.7 7.5.3 5.2 1.3 11.7-.7 16.5-2.9 7.5-24.8 9.5-31.2 11.7-18.2 5.6-31.8 20.4-31.8 41.3h82.9c1.3 0 6.5-9.6 8-11.2 7.3-8 15.8-14.8 25.3-19.6zm319-11.1c-8.4-2.8-24.8-3.5-30.8-10.8-3.1-3.7-1.3-13-.9-17.3 4.6.5 9.6-.3 14.3-.8 4.2-.7 8.4-1.5 12.6-2.9 1.9-.8 3.8-1.5 5.5-2.4 4-2.3 2.3-2.8.1-6.4-11.4-19.2-6.3-43.1-6.8-64.2-.5-17.3-4.9-36.5-20.9-46.2-14.3-8.8-35.5-9.2-50.8-2.9-44.3 17.7-18.1 76.3-33.3 109.9-2.6 5.6-6.4 7.6.1 11 3.7 1.9 7.6 3.1 11.5 4 6 1.5 12.3 2.3 18.6 2.4.9 0 .3 13.1 0 14.5-1.1 5.2-12.3 6.5-16.5 7.8-4.2 1.2-11.4 1.5-13.4 6-3.1 6.8 10.3 4.9 13.8 5.6 10.8 2.1 20.3 7.9 28.7 14.7 6.3 5.2 14.7 11.9 17 20.3h83.6c-.4-21.5-14.1-36.4-32.4-42.3z"/>
</svg>
